X: 5216
T: Broadstone Inn, The
R: reel
M: 4/4
K: Gdorian
BGAF GFDC|DGG^F G=FDC|B,GBd fdcB|AFFE F2dc|
BdAd GFDC|DGG^F ~G2GA|BD~D2 AD~D2|dcBA G^FGA:|
|:BGAd dcBA|Ggg^f g=fdc|BGdc BAGF|DGG^F ~G2GA|
Bd (3fed gfdc|BdcB AF~F2|BGag fc~c2|dcBA G^FGA:|

